X:3
T:The Trip to Birmingham
C:Josie McDermott
S:Brendan McAuley
Z:Anthony Buffery <anthony.buffery@RRC.CO.UK> irtrad-l 2001-6-13
R:reel
M:4/4
K:G
E|DGGF GA(3Bde|e2ed edBA|G3B dGG2|ABAG eGD2|
DGGF GA(3Bcd|e2ed efga|bgg2 ageg|dBAB G3:|
B|dggf g3a|bgag edBA|G3B dGG2|ABAG EGD2|
[1dggf g3a|bgag edBA|G3B dGG2|AGFA G3:|
[2dgg2 agg2|bgag edBA|G3B dGG2|AGFA G3:|
